!!!OTL: Die verkaufte Muellerin
!!!OTL-incipit:Es wollt' ein Mueller frueh aufstehn,
!!!ARE: Europa, Mitteleuropa, Deutschland (), Sachsen, Altmark
!!!YOR: 4, S. 346
!!    1912 gedruckt
!!!SCT: Q0086X
!!!TXL: @@DE
!!!YEM: Copyright 1995, estate of Helmut Schaffrath.
**kern	**text
*ICvox	*
*M3/4	*
*k[f#]	*
*G:	*
!LO:TX:a:t=Altmarkt	!
{8g	Es
=1	=1
8g	wollt'
8b	ein
4.dd	Mül-
8b	-ler
=2	=2
8b	früh
8a	auf-
4a	-ſtehn,
8r}	.
{8a	wollt'
=3	=3
8a	in
8ee	den
4.ee	Wald
8dd	ſpa-
=4	=4
8cc	-ʒie-
8b	-ren
4b	gehn,
8r}	.
{8g	den
=5	=5
8g	Wald
8b	ſich
4.dd	ʒu
8b	be-
=6	=6
8ccL	-ſchau-
8eeJ	.
4ee	-en,
8r}	.
{8gg	den
=7	=7
8ff#	Wald
8ee	ſich
4.dd	ʒu
8b	be-
=8	=8
8ccL	-ſchau-
8aJ	.
4g	-en.
8r}	.
==	==
!!!AGN: Ballade, Menschenhandel, Rettung, Hinrichtung
!!!ONB: ESAC (Essen Associative Code) Database: BALLADE
!!!AMT: simple triple
!!!AIN: vox
!!!EED: Helmut Schaffrath
!!!EEV: 1.0
!!!source: Deutsche Volkslieder mit ihren Melodien. Herausgegeben vom Deutschen Volksliedarchiv. Vierter Band. Berlin 1959.
!!!page: 346
!!!ENC: Anna Maria Matuszewska
!!!EEV: 2025/02/27
*-	*-
